X: 12
T: Missa Assumpta est Maria / Agnus Dei
N: Derived from Rue1003e-Missa_Assumpta_est_Maria-Agnus.krn
C: Pierre de la Rue
%%abc-version 2.0
%%abcx-abcm2ps-target-version 5.9.1 (29 Sep 2008)
%%abc-creator hum2abc beta
%%abcx-conversion-date 2019/02/17 08:01:09
%%abc-edited-by Jesse Rodin
%%abc-edited-by Chris Gage 11-26-2012
%%abcx-initial-encoding-date 2013/05/19/
%%humdrum-veritas 1702853298
%%humdrum-veritas-data 497222953
%%linebreak <none>
%%barnumbers 0
L: 1/4
M: 3/1
Q: 1/2=120
%%staves [1 2 3 4]
V: 1 clef=treble-8
V: 2 clef=treble-8
V: 3 clef=bass
V: 4 clef=bass
K: F
[V:1] c8c4 | 
[V:2] G8A4 | 
[V:3] C,8C,4 | 
[V:4] C,8F,,4- | 
[V:1] A8c4 | 
[V:2] c8A4 | 
[V:3] C,8E,4 | 
[V:4] F,,4C,8 | 
[V:1] d4f6e2 | 
[V:2] B3cdcBAB4 | 
[V:3] F,12 | 
[V:4] B,,8D,4 | 
[V:1] e3fg2e2d4 | 
[V:2] c2G2c2c4B2 | 
[V:3] G,12 | 
[V:4] C,8z4 | 
[V:1] c4z2f3edc | 
[V:2] c3FF8 | 
[V:3] A,12 | 
[V:4] z2F,3E,D,C,D,2A,,2 | 
[V:1] d2A2z2d3cBA | 
[V:2] z4z4D4 | 
[V:3] F,8F,4 | 
[V:4] z2D,3C,B,,A,,B,,4 | 
[V:1] B2G2c4A2d2- | 
[V:2] D2E4C2FGA2 | 
[V:3] G,4E,2A,4F,2 | 
[V:4] G,,2C,4A,,2D,E,F,2 | 
[V:1] def2B3cd2c2- | 
[V:2] D8F4 | 
[V:3] B,3A,G,2F,4A,2- | 
[V:4] B,,8F,,4- | 
[V:1] c2a3gf4e2 | 
[V:2] F2A3Bc4c2 | 
[V:3] A,B,C2F,2A,2G,4 | 
[V:4] F,,4z4C,4 | 
[V:1] f8z4 | 
[V:2] A2d4c4B2 | 
[V:3] F,12 | 
[V:4] D,4B,,2F,3E,D,2 | 
[V:1] z12 | 
[V:2] c2G2c3BA2G2 | 
[V:3] z12 | 
[V:4] C,3B,,A,,2G,,2C,4 | 
[V:1] z12 | 
[V:2] c4F4z2c2- | 
[V:3] F,3E,D,2C,2F,4 | 
[V:4] F,,12 | 
[V:1] z12 | 
[V:2] c2A2B2G3AB2 | 
[V:3] C,4z4z4 | 
[V:4] A,,4G,,2B,,3A,,G,,2 | 
[V:1] z4z4c4 | 
[V:2] c2A2B2G3FF2 | 
[V:3] F,4G,4A,4 | 
[V:4] F,,2A,,2G,,2B,,2A,,4 | 
[V:1] d8d4 | 
[V:2] z2G2D2G3FE2 | 
[V:3] B,12- | 
[V:4] G,,12- | 
[V:1] g8g4 | 
[V:2] D6E2D4- | 
[V:3] B,12 | 
[V:4] G,,12 | 
[V:1] f8c4 | 
[V:2] D4F8 | 
[V:3] A,8A,4 | 
[V:4] D,,8F,,4 | 
[V:1] z2g4f2e2d2 | 
[V:2] D8z2d2- | 
[V:3] B,6A,2G,2F,2 | 
[V:4] G,,6D,,2G,,2B,,2 | 
[V:1] f3ec2d4c2- | 
[V:2] d2c2A2B4A2 | 
[V:3] A,3G,E,2F,4E,2 | 
[V:4] F,,4C,2B,,4C,2 | 
[V:1] cBB2c6A2 | 
[V:2] G4E2F3EE2 | 
[V:3] D,4C,8 | 
[V:4] G,,4A,,8 | 
[V:1] A8c4- | 
[V:2] F8F4 | 
[V:3] z4C,8 | 
[V:4] F,,12- | 
[V:1] c4G8 | 
[V:2] z2c2c2c4BA | 
[V:3] C,12 | 
[V:4] F,,4z4z4 | 
[V:1] z4z4z2g2 | 
[V:2] G6C2G4- | 
[V:3] E,12- | 
[V:4] z2C,2C,2C,4B,,A,, | 
[V:1] g2g3fedc3B | 
[V:2] G4G4A4 | 
[V:3] E,12 | 
[V:4] G,,4C,8 | 
[V:1] d3ef2d3ef2 | 
[V:2] B3cd2B3cd2 | 
[V:3] F,4D,3E,F,2D,2 | 
[V:4] B,,8B,,4 | 
[V:1] e2d4g3ff2 | 
[V:2] c2d2B2d3cA2 | 
[V:3] G,8A,4 | 
[V:4] C,2B,,2G,,4D,4 | 
[V:1] g4c4z2f2- | 
[V:2] B2G4c4B2 | 
[V:3] G,6E,2F,4 | 
[V:4] G,,2C,4E,2D,4 | 
[V:1] f2e3cd2c3A | 
[V:2] c4z4z4 | 
[V:3] z2G,3F,D,2E,2C,2 | 
[V:4] z2C,3A,,B,,2C,2A,,2 | 
[V:1] B2G3ABcd2G2 | 
[V:2] z4G3ABcd2 | 
[V:3] D,8D,4 | 
[V:4] G,,2z2G,,4G,,3A,, | 
[V:1] z2d4B2c3A | 
[V:2] G2F2D2G4C2 | 
[V:3] z2D,4D,2E,2F,2 | 
[V:4] B,,C,D,2G,,2B,,2A,,4 | 
[V:1] Bcded2c4=B2 | 
[V:2] D8G4 | 
[V:3] G,2F,E,F,E,D,C,D,4 | 
[V:4] G,,8G,,4 | 
[V:1] c12 ||  
[V:2] G12 ||  
[V:3] C,12 ||  
[V:4] C,,12 ||  
[V:1]  [K:F] [K:clef=treble-8][M:2/1]z8 | 
[V:2]  [K:F] [K:clef=treble-8][M:2/1]c4c3B | 
[V:3]  [K:F] [K:clef=bass][M:2/1]z8 | 
[V:4]  [K:F] [K:clef=bass][M:2/1]C,8 | 
[V:1] z8 | 
[V:2] G2A2G2c2- | 
[V:3] z8 | 
[V:4] C,4C,4 | 
[V:1] z8 | 
[V:2] cBAGA4 | 
[V:3] z8 | 
[V:4] E,4F,4 | 
[V:1] g4g3f | 
[V:2] G8 | 
[V:3] z8 | 
[V:4] G,2E,4D,C, | 
[V:1] d2e2d2g2- | 
[V:2] G4G4 | 
[V:3] z8 | 
[V:4] B,,2C,2G,,4 | 
[V:1] gfede2dc | 
[V:2] B4c4 | 
[V:3] z8 | 
[V:4] z8 | 
[V:1] B2c4=B2 | 
[V:2] d8 | 
[V:3] z8 | 
[V:4] G,,8 | 
[V:1] c8 | 
[V:2] c4c3B | 
[V:3] C,8 | 
[V:4] A,,2F,,3G,,A,,B,, | 
[V:1] z8 | 
[V:2] G2A2G2c2- | 
[V:3] C,4C,4 | 
[V:4] C,2F,,2C,4- | 
[V:1] z8 | 
[V:2] cBAGA4 | 
[V:3] E,4F,4 | 
[V:4] C,2E,2D,4 | 
[V:1] z8 | 
[V:2] G8- | 
[V:3] G,4G,3F, | 
[V:4] G,,8 | 
[V:1] z8 | 
[V:2] G8 | 
[V:3] D,2E,2D,2G,2- | 
[V:4] G,,4G,,4 | 
[V:1] z4g4 | 
[V:2] z8 | 
[V:3] G,F,E,D,E,4 | 
[V:4] B,,4C,4 | 
[V:1] f2d4cB | 
[V:2] z8 | 
[V:3] D,4F,4- | 
[V:4] D,4B,,3C, | 
[V:1] A2B2A2d2- | 
[V:2] z8 | 
[V:3] F,2G,2A,2B,2- | 
[V:4] D,2G,,2D,4 | 
[V:1] d2c2B4 | 
[V:2] D8 | 
[V:3] B,A,A,2G,4 | 
[V:4] G,,8 | 
[V:1] A4d4 | 
[V:2] D4A4- | 
[V:3] F,8 | 
[V:4] D,4D,3C, | 
[V:1] c3de2f2- | 
[V:2] A2GFc2F2 | 
[V:3] z8 | 
[V:4] A,,2B,,2A,,2D,2- | 
[V:1] fedcd2B2 | 
[V:2] B8 | 
[V:3] G,8 | 
[V:4] D,C,B,,A,,B,,2A,,G,, | 
[V:1] f2edc4 | 
[V:2] c4z2F2- | 
[V:3] A,8- | 
[V:4] F,,4z4 | 
[V:1] z4c4 | 
[V:2] F2F2E4- | 
[V:3] A,8 | 
[V:4] F,,4A,,4- | 
[V:1] c4c4- | 
[V:2] E4F4 | 
[V:3] A,8 | 
[V:4] A,,4F,,4- | 
[V:1] c4c4 | 
[V:2] A8- | 
[V:3] F,8- | 
[V:4] F,,4A,,4 | 
[V:1] d4d4 | 
[V:2] A4B4 | 
[V:3] F,8 | 
[V:4] D,8 | 
[V:1] e3cefg2- | 
[V:2] c8 | 
[V:3] G,8- | 
[V:4] C,8 | 
[V:1] gfededcB | 
[V:2] z4c4- | 
[V:3] G,8 | 
[V:4] C,8 | 
[V:1] A4f4 | 
[V:2] c4A3B | 
[V:3] F,8 | 
[V:4] F,,8 | 
[V:1] e3fgfd2- | 
[V:2] cBG4B2- | 
[V:3] z8 | 
[V:4] z8 | 
[V:1] d2f4ed | 
[V:2] B2AGF4 | 
[V:3] z8 | 
[V:4] z4B,,4 | 
[V:1] c4c2B2- | 
[V:2] F2E4G2- | 
[V:3] z8 | 
[V:4] A,,3B,,C,B,,G,,2- | 
[V:1] B2AGF2c2- | 
[V:2] G2FED2A2- | 
[V:3] z8 | 
[V:4] G,,2B,,4A,,G,, | 
[V:1] c2BAG2c2- | 
[V:2] AGF4E2 | 
[V:3] z8 | 
[V:4] F,,4C,4 | 
[V:1] c2A2A4 | 
[V:2] F4c4- | 
[V:3] F,8 | 
[V:4] F,,8 | 
[V:1] z4c4- | 
[V:2] c2A4GF | 
[V:3] E,8 | 
[V:4] z4A,,4 | 
[V:1] c4c4 | 
[V:2] E4F4 | 
[V:3] C,8 | 
[V:4] A,,8 | 
[V:1] B4d4- | 
[V:2] G4B4 | 
[V:3] D,8 | 
[V:4] G,,8 | 
[V:1] d2cBA2F2 | 
[V:2] A8- | 
[V:3] F,8- | 
[V:4] F,,4D,4- | 
[V:1] f6ed | 
[V:2] A8- | 
[V:3] F,8- | 
[V:4] D,2C,B,,A,,2F,,2 | 
[V:1] c4d4 | 
[V:2] A8 | 
[V:3] F,8 | 
[V:4] F,6E,D, | 
[V:1] e4z2e2- | 
[V:2] c4z2c2- | 
[V:3] G,8 | 
[V:4] C,4z2C,2- | 
[V:1] e2d2e2c2 | 
[V:2] c2B2c4 | 
[V:3] G,4G,4 | 
[V:4] C,2G,,2C,2E,2 | 
[V:1] f6d2 | 
[V:2] d6B2 | 
[V:3] F,6G,2 | 
[V:4] D,6G,,2 | 
[V:1] d4z2d2- | 
[V:2] B4z2B2- | 
[V:3] G,8 | 
[V:4] G,,4z2G,,2- | 
[V:1] d2e4c2- | 
[V:2] B2c4A2- | 
[V:3] z2G,4A,2- | 
[V:4] G,,2C,4F,2- | 
[V:1] c2f4d2 | 
[V:2] A2d4B2 | 
[V:3] A,2F,4B,2- | 
[V:4] F,2B,,2B,,4- | 
[V:1] d4z2d2 | 
[V:2] B2cd_e2d2- | 
[V:3] B,2G,2G,3F, | 
[V:4] B,,4C,2B,,2 | 
[V:1] e3fg4 | 
[V:2] d2c3=B=B2 | 
[V:3] E,2C,2D,4 | 
[V:4] C,4G,,4 | 
[V:1] e3fg2e2 | 
[V:2] c4e4 | 
[V:3] C,8 | 
[V:4] z4C,4 | 
[V:1] f2d4c2 | 
[V:2] d2B4A2 | 
[V:3] D,4F,4- | 
[V:4] B,,6F,,2 | 
[V:1] d2c2c4- | 
[V:2] B2G2A2F2 | 
[V:3] F,2E,2D,2C,2 | 
[V:4] B,,2C,2F,,2A,,2 | 
[V:1] c2=BA=B4 | 
[V:2] G8- | 
[V:3] D,8 | 
[V:4] G,,8 | 
[V:1] c4e4 | 
[V:2] G8 | 
[V:3] E,8 | 
[V:4] C,8 | 
[V:1] d3efedc | 
[V:2] B4A4 | 
[V:3] F,8 | 
[V:4] B,,3A,,F,,4 | 
[V:1] !fermata!=B8 | 
[V:2] !fermata!G8 | 
[V:3] !fermata!D,8 | 
[V:4] !fermata!G,,8 | 
[V:1] c8 |]  
[V:2] G8 |]  
[V:3] C,8 |]  
[V:4] C,,8 & C,8 |]  



